**kern
*staff1
*I"Piano
=1- 
*clefG2
*k[f#]
*G:
*M4/4
4r
8g/L
8a/J
8cc\L
8ee-\J
8r
8cc\
=2 
24dd\LL
24ee-\
24dd\J
[8a-\J
8a-/L]
24g/L
24a-/
24g/JJ
4d-/
24dd\LL
24ee-\
24dd\J
[8a-\J
=3 
!!linebreak:original
8a-/L]
24g/L
24a-/
24g/JJ
4d-/
24dd\LL
24ee-\
24dd\J
[8a-\J
8a-/L]
24g/L
24a-/
24g/JJ
=4 
4d-/
24g/LL
24a-/
24g/J
[8d-/J
8d-/L]
24g/L
24a-/
24g/JJ
8d-/
8r
=5 
8r
8ee\L
8ee\
8ee\J
8ee\L
8ee\
8ee\
8ee\J
=6 
!!linebreak:original
8ee\L
8g\
8a\
[8cc\J
4cc\]
4r
=7 
8r
8dd\L
8dd\
8dd\J
8dd\L
8dd\
8dd\
8dd\J
=8 
8dd/L
8d/
8e/
[8b/J
4.b\]
8b\
=9 
24b-/LL
24cc/
24b-/J
8fn/J
8ee-/L
8f/J
8cc\
4.f/
=10 
!!linebreak:original
24a/LL
24b/
24a/J
8e/J
8dd/L
8e/J
4b\
4dd\
=11 
[1b
=12 
2.b\]
4r
=13 
8r
8ee\L
8ee\
8ee\J
8ee\L
8ee\
8ee\
8ee\J
=14 
8ee\L
8g\
8a\
[8cc\J
4cc\]
4r
=15 
!!linebreak:original
8r
8dd\L
8dd\
8dd\J
8dd\L
8dd\
8dd\
8dd\J
=16 
8dd/L
8d/
8e/
[8b/J
4.b\]
8b\
=17 
24b-/LL
24cc/
24b-/J
8fn/J
8ee-/L
8f/J
8cc\
4.f/
=18 
!!linebreak:original
24a/LL
24b/
24a/J
8g/J
8dd/L
8e/J
8b/L
8d/
8a-/
8f#/J
=19 
[1g
=20 
2.g/]
4r
=21 
4r
16b\LL
16cc\
16ee-\
16cc\JJ
2b\
=22 
4r
16b\LL
16cc\
16ff#\
16ee\JJ
2b\
=23 
!!linebreak:original
4r
16b/LL
16a/
16f#/
16e/JJ
12e-/L
12a/
12cc/J
8ffn\L
8dd#\J
=24 
1ee
=25 
4r
16b-\LL
16bn\
16dd\
16b\JJ
2b-\
=26 
4r
16b-/LL
16cc/
16g/
16a-/JJ
2b-\
=27 
!!linebreak:original
4r
16b/LL
16dd/
16d/
16e/JJ
16b\LK
8b\
[16b\Jk
4b\]
=28 
4r
16ee\LL
16gg\
16g\
16a\JJ
16ee\LK
8ee\
[16ee\Jk
4ee\]
=29 
8r
8ee\L
8ee\
8ee\J
8ee\L
8ee\
8ee\
8ee\J
=30 
8ee\L
8g\
8a\
[8cc\J
4cc\]
4r
=31 
!!pagebreak:original
8r
8dd\L
8dd\
8dd\J
8dd\L
8dd\
8dd\
8dd\J
=32 
8dd/L
8d/
8e/
[8b/J
4.b\]
8b\
=33 
24b-/LL
24cc/
24b-/J
8fn/J
8ee-/L
8f/J
8cc\
4.f/
=34 
!!linebreak:original
24a/LL
24b/
24a/J
8e/J
8dd/L
8e/J
8b/L
8e-/
8a-/
8f#/J
=35 
[1g
=36 
8g/]
8r
4r
2r
== 
*-
